X:39
T:Stag Hunters Jigg. JJo4.039, The
B:J.Johnson Choice Collection Vol 4, 1748
Z:vmp.Robert Watkins 2014 www.village-music-project.org.uk
M:6/8
L:1/8
Q:3/8=116
N:Second section has repeat sign at beginning but not at end.
R:Jig
K:A
A|c2ee2a|{a}Tg2fe2g|(fga) (ecA)|B3z2c/d/|
ece- efg|agfe2d|(ce)a cdB|A3-A2:|
|:g|(aec) (efg)|(aec) (ef)g|fga (ecA)|B3z2a|
(gaf)e2a|gaf e2d|cea cdB|A3-A2:|

